X: 227
T: Tune Up
M: 4/4
L: 1/4
C: Miles Davis
Q: 1/4=200
%%staves (chords melody)
K: C
%%text (medium/up)
%%vskip 20
% A %%%%%%%%%%%%%%%%%%%%%%%%%%%%%%%%%%%%
P: A
V: chords
"Em7"x2 x2 | "A7"x2 x2 | "Dmaj7"x2 x2 | x2 x2 |
"Dm7"x2 x2 | "G7"x2 x2 | "Cmaj7"x2 x2 | x2 x2 ||
V: melody
A3G | ^D2E2 | ^F4- | F4 |
G3=F | ^C2D2 | E4- | E3E ||
P: B
V: chords
"Cm7"x2 x2 | "F7"x2 x2 | "Bbmaj7"x2 x2 | x2 x2 |
"Em7"x2 x2 | "A7"x2 x2 | "Bbmaj7"x2 x2 | x2 x2 |]
V: melody
_E4- | EFGA | d4- | dd2c |
A4- | A>G A/c/A/G/ | A4- | A2z2 |]
